X: 5
T: Loopty Lou
T: Loopy Lou
M: 9/8
L: 1/8
R: slip jig
K: G Major
|: deg d2 B d3 | deg d2 B A3 | 
deg d2 B d3 |[1 d2 d cBA G3 :|[2 d2 c B2 A G3 ||
G2 G d2 B d3 | G2 G d2 B A3 |
G2 G d2 B d3 |[1 d2 d cBA G3 :|[2 d2 c B2 A G3 |]
